**kern	**kern	**dynam
*part1	*part1	*part1
*staff2	*staff1	*
*I"Piano	*	*
*clefF4	*clefG2	*
*k[f#]	*k[f#]	*
=1	=1	=1
*^	*	*
8.GGL	2GG	4c] 4cc]	.
(16EJk	.	.	.
4ryy	.	[4B) [4b	.
=	=	=	=
8.FF#L	2FF#	4B] 4b]	.
(16BBJk	.	.	.
4ryy	.	[4A) [4d#X [4a	.
=	=	=	=
8.EEL	4.EE)	4A] 4d#] 4a]	.
(16BBJk	.	.	.
8ryy	.	8G)) 8e 8g	.
8C' 8G	8ryy	8c' 8e 8g	pp
*v	*v	*	*
=	=	=
8.C'L 8.G	8.c'L 8.e 8.g	.
16C'K 16G	16c'K 16e 16g	.
8C' 8G	8c' 8e 8g	.
8C'J 8G	8c'J 8e 8g	.
=	=	=
8FFn'L 8Fn	8c'L 8g 8b	.
8FF' 8F	8c' 8fn 8a	.
8FF'J 8F	8c'J 8d 8f	.
8GG' 8G	8B' 8d	.
=	=	=
8.GG'L 8.G	8.B'L 8.d	.
16GG'K 16G	16B'K 16d	.
8GG' 8G	8B' 8d	.
8GG'J 8G	8B'J 8d	.
=	=	=
!	!LO:TX:a:i:t=ritard.	!
4C' 4G	4c' 4e	.
8r	8r	.
8C' 8G	8c' 8e 8g	.
=	=	=
*-	*-	*-
!!!system-decoration: {(s1,s2)}
